images/3234974.svg

<?xml version="1.0" encoding="UTF-8"?>
<svg xmlns="http://www.w3.org/2000/svg" xmlns:xlink="http://www.w3.org/1999/xlink" width="300pt" height="300pt" viewBox="0 0 300 300" version="1.1">
<defs>
<g>
<symbol overflow="visible" id="glyph0-0">
<path style="stroke:none;" d="M 0.640625 2.296875 L 0.640625 -9.171875 L 7.140625 -9.171875 L 7.140625 2.296875 Z M 1.375 1.578125 L 6.421875 1.578125 L 6.421875 -8.4375 L 1.375 -8.4375 Z M 1.375 1.578125 "/>
</symbol>
<symbol overflow="visible" id="glyph0-1">
<path style="stroke:none;" d="M 1.28125 -9.484375 L 3 -9.484375 L 7.203125 -1.546875 L 7.203125 -9.484375 L 8.453125 -9.484375 L 8.453125 0 L 6.71875 0 L 2.515625 -7.921875 L 2.515625 0 L 1.28125 0 Z M 1.28125 -9.484375 "/>
</symbol>
<symbol overflow="visible" id="glyph0-2">
<path style="stroke:none;" d="M 5.125 -8.609375 C 4.1875 -8.609375 3.441406 -8.257812 2.890625 -7.5625 C 2.347656 -6.875 2.078125 -5.929688 2.078125 -4.734375 C 2.078125 -3.535156 2.347656 -2.585938 2.890625 -1.890625 C 3.441406 -1.203125 4.1875 -0.859375 5.125 -0.859375 C 6.050781 -0.859375 6.785156 -1.203125 7.328125 -1.890625 C 7.878906 -2.585938 8.15625 -3.535156 8.15625 -4.734375 C 8.15625 -5.929688 7.878906 -6.875 7.328125 -7.5625 C 6.785156 -8.257812 6.050781 -8.609375 5.125 -8.609375 Z M 5.125 -9.65625 C 6.445312 -9.65625 7.503906 -9.207031 8.296875 -8.3125 C 9.097656 -7.414062 9.5 -6.222656 9.5 -4.734375 C 9.5 -3.234375 9.097656 -2.035156 8.296875 -1.140625 C 7.503906 -0.253906 6.445312 0.1875 5.125 0.1875 C 3.789062 0.1875 2.722656 -0.253906 1.921875 -1.140625 C 1.128906 -2.035156 0.734375 -3.234375 0.734375 -4.734375 C 0.734375 -6.222656 1.128906 -7.414062 1.921875 -8.3125 C 2.722656 -9.207031 3.789062 -9.65625 5.125 -9.65625 Z M 5.125 -9.65625 "/>
</symbol>
<symbol overflow="visible" id="glyph0-3">
<path style="stroke:none;" d="M 1.28125 -9.484375 L 6.71875 -9.484375 L 6.71875 -8.390625 L 2.5625 -8.390625 L 2.5625 -5.609375 L 6.3125 -5.609375 L 6.3125 -4.53125 L 2.5625 -4.53125 L 2.5625 0 L 1.28125 0 Z M 1.28125 -9.484375 "/>
</symbol>
</g>
</defs>
<g id="surface40441">
<rect x="0" y="0" width="300" height="300" style="fill:rgb(100%,100%,100%);fill-opacity:1;stroke:none;"/>
<path style="fill:none;stroke-width:1.2;stroke-linecap:butt;stroke-linejoin:miter;stroke:rgb(0%,0%,0%);stroke-opacity:1;stroke-miterlimit:10;" d="M 254.46875 176.195312 L 264.75 207.835938 "/>
<path style="fill:none;stroke-width:1.2;stroke-linecap:butt;stroke-linejoin:miter;stroke:rgb(0%,0%,0%);stroke-opacity:1;stroke-miterlimit:10;" d="M 248.050781 181.777344 L 256.277344 207.089844 "/>
<path style="fill:none;stroke-width:1.2;stroke-linecap:butt;stroke-linejoin:miter;stroke:rgb(0%,0%,0%);stroke-opacity:1;stroke-miterlimit:10;" d="M 221.921875 169.277344 L 254.46875 176.195312 "/>
<path style="fill:none;stroke-width:1.2;stroke-linecap:butt;stroke-linejoin:miter;stroke:rgb(0%,0%,0%);stroke-opacity:1;stroke-miterlimit:10;" d="M 264.75 207.835938 L 242.488281 232.5625 "/>
<path style="fill:none;stroke-width:1.2;stroke-linecap:butt;stroke-linejoin:miter;stroke:rgb(0%,0%,0%);stroke-opacity:1;stroke-miterlimit:10;" d="M 242.488281 232.5625 L 209.945312 225.644531 "/>
<path style="fill:none;stroke-width:1.2;stroke-linecap:butt;stroke-linejoin:miter;stroke:rgb(0%,0%,0%);stroke-opacity:1;stroke-miterlimit:10;" d="M 240.863281 224.210938 L 214.828125 218.679688 "/>
<path style="fill:none;stroke-width:1.2;stroke-linecap:butt;stroke-linejoin:miter;stroke:rgb(0%,0%,0%);stroke-opacity:1;stroke-miterlimit:10;" d="M 242.488281 232.5625 L 247.632812 248.382812 "/>
<path style="fill:none;stroke-width:1.2;stroke-linecap:butt;stroke-linejoin:miter;stroke:rgb(20%,80%,80%);stroke-opacity:1;stroke-miterlimit:10;" d="M 247.632812 248.382812 L 252.773438 264.203125 "/>
<path style="fill:none;stroke-width:1.2;stroke-linecap:butt;stroke-linejoin:miter;stroke:rgb(0%,0%,0%);stroke-opacity:1;stroke-miterlimit:10;" d="M 209.945312 225.644531 L 199.664062 194.003906 "/>
<path style="fill:none;stroke-width:1.2;stroke-linecap:butt;stroke-linejoin:miter;stroke:rgb(0%,0%,0%);stroke-opacity:1;stroke-miterlimit:10;" d="M 199.664062 194.003906 L 221.921875 169.277344 "/>
<path style="fill:none;stroke-width:1.2;stroke-linecap:butt;stroke-linejoin:miter;stroke:rgb(0%,0%,0%);stroke-opacity:1;stroke-miterlimit:10;" d="M 207.707031 196.769531 L 225.515625 176.988281 "/>
<path style="fill:none;stroke-width:1.2;stroke-linecap:butt;stroke-linejoin:miter;stroke:rgb(0%,0%,0%);stroke-opacity:1;stroke-miterlimit:10;" d="M 221.921875 169.277344 L 211.640625 137.636719 "/>
<path style="fill:none;stroke-width:1.2;stroke-linecap:butt;stroke-linejoin:miter;stroke:rgb(0%,0%,0%);stroke-opacity:1;stroke-miterlimit:10;" d="M 211.640625 137.636719 L 195.367188 134.179688 "/>
<path style="fill:none;stroke-width:1.2;stroke-linecap:butt;stroke-linejoin:miter;stroke:rgb(0%,0%,100%);stroke-opacity:1;stroke-miterlimit:10;" d="M 195.367188 134.179688 L 179.097656 130.722656 "/>
<path style="fill:none;stroke-width:1.2;stroke-linecap:butt;stroke-linejoin:miter;stroke:rgb(0%,0%,100%);stroke-opacity:1;stroke-miterlimit:10;" d="M 179.097656 130.722656 L 173.953125 114.902344 "/>
<path style="fill:none;stroke-width:1.2;stroke-linecap:butt;stroke-linejoin:miter;stroke:rgb(0%,0%,0%);stroke-opacity:1;stroke-miterlimit:10;" d="M 173.953125 114.902344 L 168.8125 99.082031 "/>
<path style="fill:none;stroke-width:1.2;stroke-linecap:butt;stroke-linejoin:miter;stroke:rgb(0%,0%,0%);stroke-opacity:1;stroke-miterlimit:10;" d="M 156.835938 155.449219 L 167.964844 143.085938 "/>
<path style="fill:none;stroke-width:1.2;stroke-linecap:butt;stroke-linejoin:miter;stroke:rgb(0%,0%,100%);stroke-opacity:1;stroke-miterlimit:10;" d="M 167.964844 143.085938 L 179.097656 130.722656 "/>
<path style=" stroke:none;fill-rule:nonzero;fill:rgb(100%,100%,100%);fill-opacity:1;" d="M 174.097656 122.722656 L 184.097656 122.722656 L 184.097656 138.722656 L 174.097656 138.722656 Z M 174.097656 122.722656 "/>
<g style="fill:rgb(0%,0%,100%);fill-opacity:1;">
  <use xlink:href="#glyph0-1" x="174.097656" y="135.098633"/>
</g>
<path style="fill:none;stroke-width:1.2;stroke-linecap:butt;stroke-linejoin:miter;stroke:rgb(0%,0%,0%);stroke-opacity:1;stroke-miterlimit:10;" d="M 168.8125 99.082031 L 179.945312 86.71875 "/>
<path style="fill:none;stroke-width:1.2;stroke-linecap:butt;stroke-linejoin:miter;stroke:rgb(0%,0%,100%);stroke-opacity:1;stroke-miterlimit:10;" d="M 179.945312 86.71875 L 191.074219 74.355469 "/>
<path style="fill:none;stroke-width:1.2;stroke-linecap:butt;stroke-linejoin:miter;stroke:rgb(0%,0%,0%);stroke-opacity:1;stroke-miterlimit:10;" d="M 165.222656 91.371094 L 174.125 81.480469 "/>
<path style="fill:none;stroke-width:1.2;stroke-linecap:butt;stroke-linejoin:miter;stroke:rgb(0%,0%,100%);stroke-opacity:1;stroke-miterlimit:10;" d="M 174.125 81.480469 L 183.03125 71.589844 "/>
<path style="fill:none;stroke-width:1.2;stroke-linecap:butt;stroke-linejoin:miter;stroke:rgb(0%,0%,0%);stroke-opacity:1;stroke-miterlimit:10;" d="M 136.269531 92.164062 L 168.8125 99.082031 "/>
<path style="fill:none;stroke-width:1.2;stroke-linecap:butt;stroke-linejoin:miter;stroke:rgb(0%,0%,100%);stroke-opacity:1;stroke-miterlimit:10;" d="M 191.074219 74.355469 L 185.933594 58.535156 "/>
<path style="fill:none;stroke-width:1.2;stroke-linecap:butt;stroke-linejoin:miter;stroke:rgb(0%,0%,0%);stroke-opacity:1;stroke-miterlimit:10;" d="M 185.933594 58.535156 L 180.792969 42.714844 "/>
<path style=" stroke:none;fill-rule:nonzero;fill:rgb(100%,100%,100%);fill-opacity:1;" d="M 186.074219 66.355469 L 196.074219 66.355469 L 196.074219 82.355469 L 186.074219 82.355469 Z M 186.074219 66.355469 "/>
<g style="fill:rgb(0%,0%,100%);fill-opacity:1;">
  <use xlink:href="#glyph0-1" x="186.074219" y="78.731445"/>
</g>
<path style="fill:none;stroke-width:1.2;stroke-linecap:butt;stroke-linejoin:miter;stroke:rgb(0%,0%,0%);stroke-opacity:1;stroke-miterlimit:10;" d="M 180.792969 42.714844 L 164.519531 39.253906 "/>
<path style="fill:none;stroke-width:1.2;stroke-linecap:butt;stroke-linejoin:miter;stroke:rgb(0%,0%,100%);stroke-opacity:1;stroke-miterlimit:10;" d="M 164.519531 39.253906 L 148.246094 35.796875 "/>
<path style="fill:none;stroke-width:1.2;stroke-linecap:butt;stroke-linejoin:miter;stroke:rgb(0%,0%,0%);stroke-opacity:1;stroke-miterlimit:10;" d="M 175.910156 49.679688 L 162.890625 46.914062 "/>
<path style="fill:none;stroke-width:1.2;stroke-linecap:butt;stroke-linejoin:miter;stroke:rgb(0%,0%,100%);stroke-opacity:1;stroke-miterlimit:10;" d="M 162.890625 46.914062 L 149.875 44.148438 "/>
<path style="fill:none;stroke-width:1.2;stroke-linecap:butt;stroke-linejoin:miter;stroke:rgb(0%,0%,100%);stroke-opacity:1;stroke-miterlimit:10;" d="M 148.246094 35.796875 L 137.117188 48.160156 "/>
<path style="fill:none;stroke-width:1.2;stroke-linecap:butt;stroke-linejoin:miter;stroke:rgb(0%,0%,0%);stroke-opacity:1;stroke-miterlimit:10;" d="M 137.117188 48.160156 L 125.988281 60.523438 "/>
<path style=" stroke:none;fill-rule:nonzero;fill:rgb(100%,100%,100%);fill-opacity:1;" d="M 143.246094 27.796875 L 153.246094 27.796875 L 153.246094 43.796875 L 143.246094 43.796875 Z M 143.246094 27.796875 "/>
<g style="fill:rgb(0%,0%,100%);fill-opacity:1;">
  <use xlink:href="#glyph0-1" x="143.246094" y="40.172852"/>
</g>
<path style="fill:none;stroke-width:1.2;stroke-linecap:butt;stroke-linejoin:miter;stroke:rgb(0%,0%,0%);stroke-opacity:1;stroke-miterlimit:10;" d="M 125.988281 60.523438 L 136.269531 92.164062 "/>
<path style="fill:none;stroke-width:1.2;stroke-linecap:butt;stroke-linejoin:miter;stroke:rgb(0%,0%,0%);stroke-opacity:1;stroke-miterlimit:10;" d="M 134.460938 61.269531 L 142.6875 86.582031 "/>
<path style="fill:none;stroke-width:1.2;stroke-linecap:butt;stroke-linejoin:miter;stroke:rgb(0%,0%,0%);stroke-opacity:1;stroke-miterlimit:10;" d="M 136.269531 92.164062 L 125.140625 104.527344 "/>
<path style="fill:none;stroke-width:1.2;stroke-linecap:butt;stroke-linejoin:miter;stroke:rgb(0%,0%,100%);stroke-opacity:1;stroke-miterlimit:10;" d="M 125.140625 104.527344 L 114.007812 116.890625 "/>
<path style="fill:none;stroke-width:1.2;stroke-linecap:butt;stroke-linejoin:miter;stroke:rgb(0%,0%,100%);stroke-opacity:1;stroke-miterlimit:10;" d="M 114.007812 116.890625 L 119.152344 132.710938 "/>
<path style="fill:none;stroke-width:1.2;stroke-linecap:butt;stroke-linejoin:miter;stroke:rgb(0%,0%,0%);stroke-opacity:1;stroke-miterlimit:10;" d="M 119.152344 132.710938 L 124.292969 148.53125 "/>
<path style="fill:none;stroke-width:1.2;stroke-linecap:butt;stroke-linejoin:miter;stroke:rgb(0%,0%,100%);stroke-opacity:1;stroke-miterlimit:10;" d="M 122.484375 117.636719 L 126.597656 130.292969 "/>
<path style="fill:none;stroke-width:1.2;stroke-linecap:butt;stroke-linejoin:miter;stroke:rgb(0%,0%,0%);stroke-opacity:1;stroke-miterlimit:10;" d="M 126.597656 130.292969 L 130.710938 142.949219 "/>
<path style=" stroke:none;fill-rule:nonzero;fill:rgb(100%,100%,100%);fill-opacity:1;" d="M 109.007812 108.890625 L 119.007812 108.890625 L 119.007812 124.890625 L 109.007812 124.890625 Z M 109.007812 108.890625 "/>
<g style="fill:rgb(0%,0%,100%);fill-opacity:1;">
  <use xlink:href="#glyph0-1" x="109.007812" y="121.266602"/>
</g>
<path style="fill:none;stroke-width:1.2;stroke-linecap:butt;stroke-linejoin:miter;stroke:rgb(0%,0%,0%);stroke-opacity:1;stroke-miterlimit:10;" d="M 124.292969 148.53125 L 156.835938 155.449219 "/>
<path style="fill:none;stroke-width:1.2;stroke-linecap:butt;stroke-linejoin:miter;stroke:rgb(0%,0%,0%);stroke-opacity:1;stroke-miterlimit:10;" d="M 124.292969 148.53125 L 102.03125 173.257812 "/>
<path style="fill:none;stroke-width:1.2;stroke-linecap:butt;stroke-linejoin:miter;stroke:rgb(0%,0%,0%);stroke-opacity:1;stroke-miterlimit:10;" d="M 153.113281 156.65625 L 158.253906 172.476562 "/>
<path style="fill:none;stroke-width:1.2;stroke-linecap:butt;stroke-linejoin:miter;stroke:rgb(100%,0%,0%);stroke-opacity:1;stroke-miterlimit:10;" d="M 158.253906 172.476562 L 163.398438 188.296875 "/>
<path style="fill:none;stroke-width:1.2;stroke-linecap:butt;stroke-linejoin:miter;stroke:rgb(0%,0%,0%);stroke-opacity:1;stroke-miterlimit:10;" d="M 160.558594 154.238281 L 165.699219 170.058594 "/>
<path style="fill:none;stroke-width:1.2;stroke-linecap:butt;stroke-linejoin:miter;stroke:rgb(100%,0%,0%);stroke-opacity:1;stroke-miterlimit:10;" d="M 165.699219 170.058594 L 170.839844 185.878906 "/>
<path style=" stroke:none;fill-rule:nonzero;fill:rgb(100%,100%,100%);fill-opacity:1;" d="M 162.117188 179.089844 L 173.117188 179.089844 L 173.117188 195.089844 L 162.117188 195.089844 Z M 162.117188 179.089844 "/>
<g style="fill:rgb(100%,0%,0%);fill-opacity:1;">
  <use xlink:href="#glyph0-2" x="162.117188" y="191.46582"/>
</g>
<path style="fill:none;stroke-width:1.2;stroke-linecap:butt;stroke-linejoin:miter;stroke:rgb(0%,0%,0%);stroke-opacity:1;stroke-miterlimit:10;" d="M 102.03125 173.257812 L 69.488281 166.34375 "/>
<path style="fill:none;stroke-width:1.2;stroke-linecap:butt;stroke-linejoin:miter;stroke:rgb(0%,0%,0%);stroke-opacity:1;stroke-miterlimit:10;" d="M 97.148438 180.222656 L 71.117188 174.691406 "/>
<path style="fill:none;stroke-width:1.2;stroke-linecap:butt;stroke-linejoin:miter;stroke:rgb(0%,0%,0%);stroke-opacity:1;stroke-miterlimit:10;" d="M 112.316406 204.898438 L 102.03125 173.257812 "/>
<path style="fill:none;stroke-width:1.2;stroke-linecap:butt;stroke-linejoin:miter;stroke:rgb(0%,0%,0%);stroke-opacity:1;stroke-miterlimit:10;" d="M 69.488281 166.34375 L 47.226562 191.070312 "/>
<path style="fill:none;stroke-width:1.2;stroke-linecap:butt;stroke-linejoin:miter;stroke:rgb(0%,0%,0%);stroke-opacity:1;stroke-miterlimit:10;" d="M 47.226562 191.070312 L 57.511719 222.710938 "/>
<path style="fill:none;stroke-width:1.2;stroke-linecap:butt;stroke-linejoin:miter;stroke:rgb(0%,0%,0%);stroke-opacity:1;stroke-miterlimit:10;" d="M 55.699219 191.8125 L 63.925781 217.125 "/>
<path style="fill:none;stroke-width:1.2;stroke-linecap:butt;stroke-linejoin:miter;stroke:rgb(0%,0%,0%);stroke-opacity:1;stroke-miterlimit:10;" d="M 57.511719 222.710938 L 90.054688 229.625 "/>
<path style="fill:none;stroke-width:1.2;stroke-linecap:butt;stroke-linejoin:miter;stroke:rgb(0%,0%,0%);stroke-opacity:1;stroke-miterlimit:10;" d="M 57.511719 222.710938 L 46.378906 235.074219 "/>
<path style="fill:none;stroke-width:1.2;stroke-linecap:butt;stroke-linejoin:miter;stroke:rgb(20%,80%,80%);stroke-opacity:1;stroke-miterlimit:10;" d="M 46.378906 235.074219 L 35.25 247.4375 "/>
<path style="fill:none;stroke-width:1.2;stroke-linecap:butt;stroke-linejoin:miter;stroke:rgb(0%,0%,0%);stroke-opacity:1;stroke-miterlimit:10;" d="M 90.054688 229.625 L 112.316406 204.898438 "/>
<path style="fill:none;stroke-width:1.2;stroke-linecap:butt;stroke-linejoin:miter;stroke:rgb(0%,0%,0%);stroke-opacity:1;stroke-miterlimit:10;" d="M 86.460938 221.914062 L 104.269531 202.132812 "/>
<path style=" stroke:none;fill-rule:nonzero;fill:rgb(100%,100%,100%);fill-opacity:1;" d="M 27.25 239.4375 L 35.25 239.4375 L 35.25 255.4375 L 27.25 255.4375 Z M 27.25 239.4375 "/>
<g style="fill:rgb(20%,80%,80%);fill-opacity:1;">
  <use xlink:href="#glyph0-3" x="27.25" y="251.813477"/>
</g>
<path style=" stroke:none;fill-rule:nonzero;fill:rgb(100%,100%,100%);fill-opacity:1;" d="M 248.773438 256.203125 L 256.773438 256.203125 L 256.773438 272.203125 L 248.773438 272.203125 Z M 248.773438 256.203125 "/>
<g style="fill:rgb(20%,80%,80%);fill-opacity:1;">
  <use xlink:href="#glyph0-3" x="248.773438" y="268.579102"/>
</g>
</g>
</svg>

<svg xmlns="http://www.w3.org/2000/svg" xmlns:xlink="http://www.w3.org/1999/xlink" width="300pt" height="300pt" viewBox="0 0 300 300"><defs><symbol overflow="visible"><path d="M.64 2.297v-11.47h6.5v11.47zm.735-.72h5.047V-8.436H1.375zm0 0"/></symbol><symbol overflow="visible" id="a"><path d="M1.28-9.484H3l4.203 7.937v-7.937h1.25V0H6.72L2.515-7.922V0H1.28zm0 0"/></symbol><symbol overflow="visible" id="b"><path d="M5.125-8.61c-.938 0-1.684.352-2.234 1.047-.542.688-.812 1.633-.812 2.83 0 1.198.27 2.147.813 2.842.55.687 1.297 1.03 2.235 1.03.926 0 1.66-.343 2.203-1.03.55-.696.828-1.645.828-2.844 0-1.196-.277-2.14-.828-2.829-.543-.695-1.277-1.046-2.203-1.046zm0-1.046c1.32 0 2.38.45 3.172 1.344.8.898 1.203 2.09 1.203 3.578 0 1.5-.402 2.7-1.203 3.593C7.504-.255 6.445.186 5.125.186c-1.336 0-2.402-.44-3.203-1.328C1.13-2.036.734-3.235.734-4.735c0-1.49.395-2.68 1.188-3.579.8-.894 1.867-1.343 3.203-1.343zm0 0"/></symbol><symbol overflow="visible" id="c"><path d="M1.28-9.484h5.44v1.093H2.562v2.78h3.75v1.08h-3.75V0H1.28zm0 0"/></symbol></defs><g><path fill="#fff" d="M0 0h300v300H0z"/><path d="M254.47 176.195l10.28 31.64M248.05 181.777l8.227 25.313M221.922 169.277l32.547 6.918M264.75 207.836l-22.262 24.726M242.488 232.563l-32.543-6.918M240.863 224.21l-26.035-5.53M242.488 232.563l5.145 15.82" stroke-width="1.2" stroke="#000" stroke-miterlimit="10" fill="none"/><path d="M247.633 248.383l5.14 15.82" stroke-width="1.2" stroke="#3cc" stroke-miterlimit="10" fill="none"/><path d="M209.945 225.645l-10.28-31.64M199.664 194.004l22.258-24.727M207.707 196.77l17.81-19.782M221.922 169.277l-10.28-31.64M211.64 137.637l-16.273-3.457" stroke-width="1.2" stroke="#000" stroke-miterlimit="10" fill="none"/><path d="M195.367 134.18l-16.27-3.457M179.098 130.723l-5.145-15.82" stroke-width="1.2" stroke="#00f" stroke-miterlimit="10" fill="none"/><path d="M173.953 114.902l-5.14-15.82M156.836 155.45l11.13-12.364" stroke-width="1.2" stroke="#000" stroke-miterlimit="10" fill="none"/><path d="M167.965 143.086l11.133-12.363" stroke-width="1.2" stroke="#00f" stroke-miterlimit="10" fill="none"/><path d="M174.098 122.723h10v16h-10zm0 0" fill="#fff"/><use xlink:href="#a" x="174.098" y="135.099" fill="#00f"/><path d="M168.813 99.082l11.132-12.363" stroke-width="1.2" stroke="#000" stroke-miterlimit="10" fill="none"/><path d="M179.945 86.72l11.13-12.365" stroke-width="1.2" stroke="#00f" stroke-miterlimit="10" fill="none"/><path d="M165.223 91.37l8.902-9.89" stroke-width="1.2" stroke="#000" stroke-miterlimit="10" fill="none"/><path d="M174.125 81.48l8.906-9.89" stroke-width="1.2" stroke="#00f" stroke-miterlimit="10" fill="none"/><path d="M136.27 92.164l32.542 6.918" stroke-width="1.2" stroke="#000" stroke-miterlimit="10" fill="none"/><path d="M191.074 74.355l-5.14-15.82" stroke-width="1.2" stroke="#00f" stroke-miterlimit="10" fill="none"/><path d="M185.934 58.535l-5.14-15.82" stroke-width="1.2" stroke="#000" stroke-miterlimit="10" fill="none"/><path d="M186.074 66.355h10v16h-10zm0 0" fill="#fff"/><use xlink:href="#a" x="186.074" y="78.731" fill="#00f"/><path d="M180.793 42.715l-16.273-3.46" stroke-width="1.2" stroke="#000" stroke-miterlimit="10" fill="none"/><path d="M164.52 39.254l-16.274-3.457" stroke-width="1.2" stroke="#00f" stroke-miterlimit="10" fill="none"/><path d="M175.91 49.68l-13.02-2.766" stroke-width="1.2" stroke="#000" stroke-miterlimit="10" fill="none"/><path d="M162.89 46.914l-13.015-2.766M148.246 35.797l-11.13 12.363" stroke-width="1.2" stroke="#00f" stroke-miterlimit="10" fill="none"/><path d="M137.117 48.16l-11.13 12.363" stroke-width="1.2" stroke="#000" stroke-miterlimit="10" fill="none"/><path d="M143.246 27.797h10v16h-10zm0 0" fill="#fff"/><use xlink:href="#a" x="143.246" y="40.173" fill="#00f"/><path d="M125.988 60.523l10.282 31.64M134.46 61.27l8.227 25.312M136.27 92.164l-11.13 12.363" stroke-width="1.2" stroke="#000" stroke-miterlimit="10" fill="none"/><path d="M125.14 104.527L114.01 116.89M114.008 116.89l5.144 15.82" stroke-width="1.2" stroke="#00f" stroke-miterlimit="10" fill="none"/><path d="M119.152 132.71l5.14 15.82" stroke-width="1.2" stroke="#000" stroke-miterlimit="10" fill="none"/><path d="M122.484 117.637l4.114 12.656" stroke-width="1.2" stroke="#00f" stroke-miterlimit="10" fill="none"/><path d="M126.598 130.293l4.113 12.656" stroke-width="1.2" stroke="#000" stroke-miterlimit="10" fill="none"/><path d="M109.008 108.89h10v16h-10zm0 0" fill="#fff"/><use xlink:href="#a" x="109.008" y="121.267" fill="#00f"/><path d="M124.293 148.53l32.543 6.92M124.293 148.53L102.03 173.26M153.113 156.656l5.14 15.82" stroke-width="1.2" stroke="#000" stroke-miterlimit="10" fill="none"/><path d="M158.254 172.477l5.144 15.82" stroke-width="1.2" stroke="#f00" stroke-miterlimit="10" fill="none"/><path d="M160.56 154.238l5.14 15.82" stroke-width="1.2" stroke="#000" stroke-miterlimit="10" fill="none"/><path d="M165.7 170.06l5.14 15.82" stroke-width="1.2" stroke="#f00" stroke-miterlimit="10" fill="none"/><path d="M162.117 179.09h11v16h-11zm0 0" fill="#fff"/><use xlink:href="#b" x="162.117" y="191.466" fill="#f00"/><path d="M102.03 173.258l-32.542-6.914M97.148 180.223l-26.03-5.532M112.316 204.898l-10.285-31.64M69.488 166.344l-22.26 24.726M47.227 191.07l10.285 31.64M55.7 191.813l8.226 25.312M57.512 222.71l32.543 6.915M57.512 222.71L46.38 235.075" stroke-width="1.2" stroke="#000" stroke-miterlimit="10" fill="none"/><path d="M46.38 235.074l-11.13 12.363" stroke-width="1.2" stroke="#3cc" stroke-miterlimit="10" fill="none"/><path d="M90.055 229.625l22.26-24.727M86.46 221.914l17.81-19.78" stroke-width="1.2" stroke="#000" stroke-miterlimit="10" fill="none"/><path d="M27.25 239.438h8v16h-8zm0 0" fill="#fff"/><use xlink:href="#c" x="27.25" y="251.813" fill="#3cc"/><path d="M248.773 256.203h8v16h-8zm0 0" fill="#fff"/><use xlink:href="#c" x="248.773" y="268.579" fill="#3cc"/></g></svg>
